!!!!SEGMENT: pl-wtm--r-249-n_noskowski-zygmunt--skowroneczek-spiewa.krn
!!!cenid: 18xx:2157
!!!COM: Noskowski, Zygmunt
!!!COM-rism: pe106604
!!!CDT: 1846/05/02-1909/07/23
!!!CNT: Polish
!!!OTL: Skowroneczek śpiewa
!!!PDT:
!!!AGN: Secular
!!!SMS-siglum: PL-Wtm
!!!SMS-shelfmark: R 249/N
!!!NIFC-rismID: 1001099890
!!!URL-scan: http://repozytorium.nifc.pl/skany/pl-wtm-nut--r249n
!!!ONB-nifc:
!!!SMS-variant:
!!!SMS-altvar:
**kern	**text	**dynam	**kern	**text	**text	**dynam
*part2	*part2	*part2	*part1	*part1	*part1	*part1
*staff2	*staff2	*	*staff1	*staff1	*staff1	*
*I"[Bassi I, II]	*	*	*I"[Tenori I, II]	*	*	*
*clefF4	*	*	*clefGv2	*	*	*
*k[b-e-a-d-g-]	*	*	*k[b-e-a-d-g-]	*	*	*
*M2/4	*	*	*M2/4	*	*	*
*>[A,A,B]	*	*	*>[A,A,B]	*	*	*
=1	=1	=1	=1	=1	=1	=1
*>A	*	*	*>A	*	*	*
*^	*	*	*^	*	*	*
!	!	!	!	!LO:TX:t=P:problem:w źródle brak przenośnika oktawowego	!	!	!	!
!	!	!	!	!LO:TX:a:i:t=Allegretto amabile	!	!	!	!
!	!	!	!LO:DY:b:rj	!	!	!	!	!LO:DY:b:rj
4F/	4D-\	.	p	4d-/	4A-\	Hej	.	p
4F/	8D-\L	.	.	4A-/	4A-\	hej	.	.
.	8C\J	.	.	.	.	.	.	.
=2	=2	=2	=2	=2	=2	=2	=2	=2
4F/	4BB-\	.	.	4d-/	4A-\	hej	.	.
4F/	(>8BB-\L	.	.	4A-/	4A-\	hej	.	.
.	8C\J)	.	.	.	.	.	.	.
=3	=3	=3	=3	=3	=3	=3	=3	=3
8.F/	8.D-\	.	.	8.B-/	8.A-\	1. Sko-	2. A	.
!LO:N:n=1:vis=8	!	!	!	!	!	!	!	!
16F/	16D-\	.	.	16c/	16A-\	-wro-	po	.
8F/	8AA-\	.	.	8d-/	8A-\	-ne-	ma-	.
8F/	8D-\	.	.	8B-/	8A-\	-czek	-łej	.
=4	=4	=4	=4	=4	=4	=4	=4	=4
8G-/	4E-\	.	.	8c/	8A-\	śpie-	chwi-	.
4G-/	.	.	.	4A-/	4A-\	-wa,	-li,	.
.	4AA-\	.	.	.	.	.	.	.
8r	.	.	.	8r	8ryy	.	.	.
=5	=5	=5	=5	=5	=5	=5	=5	=5
8.F/	8.D-\	.	.	8.B-/	8.A-\	sło-	Je-	.
16F/	16D-\	.	.	16c/	16A-\	-necz-	-dzie	.
8F/	8D-\	.	.	8d-/	8A-\	-ko	Ja-	.
8F/	8BB-\	.	.	8f/	8A-\	do-	-sio	.
!!LO:LB:g=original
=6	=6	=6	=6	=6	=6	=6	=6	=6
8G-/	4C\	.	.	8e-/	8A-\	-grze-	mi-	.
4G-/	.	.	.	4a-/	4c\	-wa,	-ły,	.
.	4AA-\	.	.	.	.	.	.	.
8r	.	.	.	8r	8ryy	.	.	.
=7	=7	=7	=7	=7	=7	=7	=7	=7
8.A-/	8.D-\	.	.	8.f/	8.d-\	A	Gdy	.
16A-/	16D-\	.	.	16e-/	16d-\	dzie-	zo-	.
8D-/	8FF\	.	.	8g-/	8A-\	-wczy-	-ba-	.
8D-/	8FF\	.	.	8f/	8A-\	-na	-czył	.
=8	=8	=8	=8	=8	=8	=8	=8	=8
8D-/	8GG-\	.	.	8c/	8A-\	w o-	dzie-	.
8D-/	8GG-\	.	.	8e-/	8c\	-kie-	-wczę	.
8G-/	8GG-\	.	.	8d-/	8B-\	-necz-	w o-	.
8G-/	8GG-\	.	.	8B-/	8G-\	-ku	-knie	.
=9	=9	=9	=9	=9	=9	=9	=9	=9
8.E-/	8.AA-\	.	.	8.c/	8.G-\	Ja-	Cza-	.
16E-/	16C\	.	.	16A-/	16G-\	-sia	-pecz-	.
8G-/	8E-\	.	.	8c/	8A-\	się	-ki	.
8G-/	8AA-\	.	.	8e-/	8c\	spo-	u-	.
=10	=10	=10	=10	=10	=10	=10	=10	=10
8B-/	4D-\	.	.	8g-/	8d-\	-dzie-	-chy-	.
4A-/	.	.	.	4f/	4d-\	-wa	-li	.
.	4C-X\	.	.	.	.	.	.	.
8r	.	.	.	8r	8ryy	.	.	.
!!LO:LB:g=original
=11	=11	=11	=11	=11	=11	=11	=11	=11
!	!	!	!LO:DY:b:rj	!	!	!	!	!LO:DY:b:rj
8.A-/	8.BB-\	.	mf	8.g-/	8.dn\	A	Gdy	mf
16A-/	16BB-\	.	.	16f/	16d\	dzie-	zo-	.
8A-/	8Dn\	.	.	8a-/	8B-\	-wczy-	-ba-	.
8F/	8D\	.	.	8A-/	8A-\	-na	-czył	.
=12	=12	=12	=12	=12	=12	=12	=12	=12
8G-/	8E-\	.	.	8c/	8B-\	w o-	dzie-	.
8G-/	8E-\	.	.	8dn/	8B-\	-kie-	-wczę	.
8G-/	8G-\	.	.	8e-/	8B-\	-necz-	w o-	.
8B-/	8E-\	.	.	8g-/	8e-\	-ku	-knie	.
=13	=13	=13	=13	=13	=13	=13	=13	=13
8A-/	8AA-\	.	.	8f/	8c\	Ja-	Cza-	.
8G-/	8AA-\	.	.	8e-/	8c\	-sia	-pecz-	.
8.E-/	8.C\	.	.	8.A-/	8.G-\	się	-ki	.
16A-/	16AA-\	.	.	16f/	16c\	spo-	u-	.
=14	=14	=14	=14	=14	=14	=14	=14	=14
8G-/	8D-\	.	.	8e-/	8A-\	-dzie-	-chy-	.
4F/	4D-\	.	.	4d-/	4A-\	-wa	-li.	.
8r	8ryy	.	.	8r	8ryy	.	.	.
!!LO:LB:g=original
=15:|!	=15:|!	=15:|!	=15:|!	=15:|!	=15:|!	=15:|!	=15:|!	=15:|!
*>B	*>B	*	*	*>B	*>B	*	*	*
!	!	!	!LO:DY:b:rj	!	!	!	!	!LO:DY:b:rj
4F/	4BB-\	I	mf	8.f/	8.d-\	I	.	mf
.	.	.	.	16e-/	16c\	przy-	.	.
4B-/	4B-\	przy-	.	8d-/	8B-\	-je-	.	.
.	.	.	.	8e-/	8c\	-chał	.	.
=16	=16	=16	=16	=16	=16	=16	=16	=16
4An/	4An\	-je-	.	8c/	8An\	bli-	.	.
.	.	.	.	4f/	4c\	-żej	.	.
4F/	4F\	-chał	.	.	.	.	.	.
.	.	.	.	8r	8ryy	.	.	.
=17	=17	=17	=17	=17	=17	=17	=17	=17
4B-/	4B-\	po-	.	8.e-/	8.c\	Po-	.	.
.	.	.	.	16d-/	16B-\	-kło-	.	.
4D-/	4D-\	-kło-	.	8B-/	8F\	-nił	.	.
.	.	.	.	8d-/	8B-\	się	.	.
=18	=18	=18	=18	=18	=18	=18	=18	=18
4F/	4F\	-nił	.	8c/	8An\	ni-	.	.
.	.	.	.	4F/	4F\	-żej	.	.
4E-/	4E-\	się	.	.	.	.	.	.
.	.	.	.	8r	8ryy	.	.	.
=19	=19	=19	=19	=19	=19	=19	=19	=19
8.F/	8.D-\	.	.	8.B-/	8.B-\	I	.	.
16F/	16E-\	.	.	16An/	16An\	dał	.	.
8F/	8D-\	.	.	8B-/	8Gn\	ci	.	.
8F/	8C\	.	.	8c/	8A\	jej	.	.
!!LO:LB:g=original
=20	=20	=20	=20	=20	=20	=20	=20	=20
4F/	4BB-\	pierś-	.	8d-/	8B-\	pier-	.	.
.	.	.	.	8e-/	8c\	-ścień	.	.
4F/	4BB-\	-cień	.	8g-/	8e-\	zło-	.	.
.	.	.	.	8f/	8d-\	-ty	.	.
=21	=21	=21	=21	=21	=21	=21	=21	=21
8G-/	8E-\	.	.	8e-/	8B-\	prze-	.	.
8G-/	8E-\	.	.	8d-/	8B-\	-cud-	.	.
8G-/	8G-\	.	.	8An/	8An\	-nej	.	.
8G-/	8E-\	.	.	8B-/	8B-\	ro-	.	.
=22	=22	=22	=22	=22	=22	=22	=22	=22
4F/	4F\	.	.	8d-/	8B-\	-bo-	.	.
.	.	.	.	4c/	4An\	-ty	.	.
!	!	!	!LO:HP:b	!	!	!	!	!
(>8E-/L	(<8E-\L	.	>	.	.	.	.	.
8C/J)	8C\J)	.	]]	8r	8ryy	.	.	.
=23	=23	=23	=23	=23	=23	=23	=23	=23
!	!	!	!LO:DY:b:rj	!	!	!	!	!LO:DY:b:rj
4BB-/	4BB-\	A	p	8.f/	8.d-\	A	.	p
.	.	.	.	16e-/	16c\	o-	.	.
4B-/	4B-\	o-	.	8d-/	8B-\	-na	.	.
.	.	.	.	8e-/	8c\	mu	.	.
=24	=24	=24	=24	=24	=24	=24	=24	=24
4An/	4An\	-na	.	8c/	8c\	za	.	.
.	.	.	.	4f/	4c\	to	.	.
4F/	4F\	mu	.	.	.	.	.	.
.	.	.	.	8r	8ryy	.	.	.
!!LO:LB:g=original
=25	=25	=25	=25	=25	=25	=25	=25	=25
4B-/	4B-\	ślicz-	.	8.e-/	8.c\	Slicz-	.	.
.	.	.	.	16d-/	16B-\	-nie	.	.
4D-/	4D-\	-nie	.	8B-/	8F\	dzię-	.	.
.	.	.	.	8d-/	8B-\	-ko-	.	.
=26	=26	=26	=26	=26	=26	=26	=26	=26
4F/	4F\	dzię-	.	8c/	8An\	-wa-	.	.
.	.	.	.	4F/	4F\	-ła	.	.
4E-/	4E-\	-ko-	.	.	.	.	.	.
.	.	.	.	8r	8ryy	.	.	.
=27	=27	=27	=27	=27	=27	=27	=27	=27
(>8F/L	(<8D-\L	-wa-	.	8B-/	8B-\	I	.	.
8E-/J)	8C\J)	.	.	8c/	8An\	dar	.	.
4F/	4BB-\	-ła	.	8e-/	8B-\	za	.	.
.	.	.	.	8d-/	8B-\	dar	.	.
=28	=28	=28	=28	=28	=28	=28	=28	=28
!	!	!	!LO:HP:b	!	!	!	!	!LO:HP:a
8B-/	8C\	.	<	8g-/	8e-\	w krót-	.	<
8A-/	8D-\	.	.	8f/	8d-\	-kim	.	.
8G-/	8E-\	.	.	8e-/	8c\	cza-	.	.
8A-/	8F\	.	[	8d-/	8d-\	-sie	.	[
=29	=29	=29	=29	=29	=29	=29	=29	=29
!	!	!	!LO:DY:b:rj	!	!	!	!	!LO:DY:b:rj
8.B-/	8.G-\	.	f	8.dn/	8.dn\	od-	.	f
16B-/	16G-\	.	.	16e-/	16e-\	-dać	.	.
8B-/	8Gn\	.	.	8f/	8d-X\	o-	.	.
8B-/	8GGn\	.	.	8e-/	8d-\	-bie-	.	.
!!LO:PB:g=original
=30	=30	=30	=30	=30	=30	=30	=30	=30
*	*	*	*	*	*	*^	*	*
!	!	!	!	!	!LO:TX:a:t=P:problem:w źródle dodatkowy tekst "ca-ła" zapisany nad górną pięciolinią	!	!	!	!
8A-/	4AA-\	ca-	.	8a-/	8c\	-ca-	ca-	.	.
!	!	!	!LO:HP:b	!	!	!	!	!	!LO:HP:a
8E-/	.	.	>	4A-/	8c\	-ła	-ła	.	>
8D-/	4AA-\	-ła	.	.	8B-\	od-	.	.	.
8C/	.	.	]	8r	8A-\	-dać	.	.	]
*	*	*	*	*	*	*v	*v	*	*
=31	=31	=31	=31	=31	=31	=31	=31	=31
!	!	!	!LO:DY:a:rj	!	!	!	!	!LO:DY:a:rj
8.F/	4D-\	Po-	p	8.B-/	8.A-\	Po-	.	p
16F/	.	.	.	16c/	16A-\	-szła	.	.
8F/	(<8AA-\L	-szła	.	8d-/	8A-\	do	.	.
8F/	8D-\J)	.	.	8B-/	8A-\	skrzy-	.	.
=32	=32	=32	=32	=32	=32	=32	=32	=32
8G-/	8.E-\	do	.	8c/	8G-\	-necz-	.	.
4G-/	.	.	.	4A-/	4G-\	-ki	.	.
.	16D-\	skrzy-	.	.	.	.	.	.
.	8C\	-necz-	.	.	.	.	.	.
8r	8AA-\	-ki	.	8r	8ryy	.	.	.
=33	=33	=33	=33	=33	=33	=33	=33	=33
8.F/	4D-\	Prze-	.	8.B-/	8.F\	Prze-	.	.
16F/	.	.	.	16c/	16A-\	-bie-	.	.
8A-/	4F\	-bie-	.	8d-/	8A-\	-rać	.	.
8A-/	.	.	.	8f/	8d-\	chus-	.	.
!!LO:LB:g=original
=34	=34	=34	=34	=34	=34	=34	=34	=34
8A-/	8.A-\	-rać	.	8e-/	8c\	-tecz-	.	.
4A-/	.	.	.	4a-/	4c\	-ki	.	.
.	16G-\	chu-	.	.	.	.	.	.
.	8E-\	-ste-	.	.	.	.	.	.
8r	8C\	-czki	.	8r	8ryy	.	.	.
=35	=35	=35	=35	=35	=35	=35	=35	=35
8.A-/	4D-\	Zło-	.	8.f/	8.d-\	Zło-	.	.
16A-/	.	.	.	16e-/	16d-\	-tem	.	.
8D-/	4FF\	-tem	.	8g-/	8A-\	szy-	.	.
8D-/	.	.	.	8f/	8A-\	-te	.	.
=36	=36	=36	=36	=36	=36	=36	=36	=36
8D-/	4GG-\	szy-	.	8c/	8A-\	roz-	.	.
8D-/	.	.	.	8e-/	8c\	-ma-	.	.
8G-/	4GG-\	-te	.	8d-/	8B-\	-i-	.	.
8G-/	.	.	.	8B-/	8G-\	-te	.	.
=37	=37	=37	=37	=37	=37	=37	=37	=37
!	!	!	!	!	!	!	!	!LO:HP:a
8.E-/	8.AA-\	.	.	8.c/	8.G-\	Wdrob-	.	<
!	!	!	!LO:HP:b	!	!	!	!	!
16E-/	16C\	.	<	16A-/	16G-\	-niu-	.	.
8G-/	8E-\	.	.	8c/	8A-\	-tkie	.	.
8A-/	8G-\	.	[	8e-/	8c\	kwia-	.	[
!!LO:LB:g=original
=38	=38	=38	=38	=38	=38	=38	=38	=38
!	!	!	!LO:DY:b	!	!	!	!	!LO:DY:b:rj
8B-/	8B-\	.	mf	8g-/	8d-\	-tecz-	.	mf
4A-/	8A-\	.	.	4f/	4d-\	-ki	.	.
.	8F\	cu-	.	.	.	.	.	.
8r	8D-\	-dne	.	8r	8ryy	.	.	.
=39	=39	=39	=39	=39	=39	=39	=39	=39
!	!	!	!LO:DY:a:rj	!	!	!	!	!LO:DY:b:rj
8A-/	8Dn\	.	f	8g-/	8B-\	Zło-	.	f
8A-/	8D\	.	.	8f/	8B-\	-tem	.	.
8.F/	8.BB-\	.	.	8.a-/	8.dn\	szy-	.	.
16F/	16Dn\	.	.	16B-/	16B-\	-te	.	.
=40	=40	=40	=40	=40	=40	=40	=40	=40
8G-/	8E-\	.	.	8c/	8B-\	roz-	.	.
8A-/	8F\	.	.	8dn/	8B-\	-ma-	.	.
8G-/	8G-\	.	.	8e-/	8B-\	-i-	.	.
8G-/	8E-\	.	.	8g-/	8B--\	-te	.	.
=41	=41	=41	=41	=41	=41	=41	=41	=41
8G-/	8C\	.	.	8f/	8A-\	W dro-	.	.
8G-/	8E-\	.	.	8e-/	8c\	-bniu-	.	.
8.A-/	8.A-\	.	.	8.A-/	8.A-\	-tkie	.	.
16G-/	16AA-\	.	.	16f/	16c\	kwia-	.	.
!!LO:LB:g=original
=42	=42	=42	=42	=42	=42	=42	=42	=42
8G-/	8D-\	.	.	8e-/	8A-\	-tecz-	.	.
4F/	4D-\	.	.	4d-/	4A-\	-ki	.	.
8r	8ryy	.	.	8r	8ryy	.	.	.
=43	=43	=43	=43	=43	=43	=43	=43	=43
!	!	!	!	!LO:TX:a:i:t=Più lento	!	!	!	!
!	!	!	!LO:DY:b:rj	!	!	!	!	!LO:DY:b:rj
8.G-/	8.G-\	.	p	8.B-/	8.B-\	Mi-	.	p
16G-/	16G-\	.	.	16c/	16B-\	-ła	.	.
8F/	8BB-\	.	.	8d-/	8B-\	chust-	.	.
8F/	8D-\	.	.	8B-/	8F\	-ka	.	.
=44	=44	=44	=44	=44	=44	=44	=44	=44
8F/	4FF\	.	.	8c/	8A-\	da-	.	.
4C/	.	.	.	4A-/	4F\	-na	.	.
.	4F\	.	.	.	.	.	.	.
8r	.	.	.	8r	8ryy	.	.	.
=45	=45	=45	=45	=45	=45	=45	=45	=45
8.E-/	8.E-\	.	.	8.B-/	8.Gn\	Zło-	.	.
16E-/	16E-\	.	.	16c/	16A-\	-tem	.	.
8F/	8D-\	.	.	8d-/	8B-\	wy-	.	.
8Gn/	8BB-\	.	.	8f/	8d-\	-szy-	.	.
=46	=46	=46	=46	=46	=46	=46	=46	=46
8A-/	4C\	.	.	8e-/	8c\	-wa-	.	.
4A-/	.	.	.	4a-/	4e-\	-na	.	.
.	4AA-\	.	.	.	.	.	.	.
8r	.	.	.	8r	8ryy	.	.	.
!!LO:LB:g=original
=47	=47	=47	=47	=47	=47	=47	=47	=47
8.An/	4C\	Mil-	.	8.f/	8.e-\	A-	.	.
16A/	.	.	.	16e-/	16e-\	-le	.	.
8B-/	4BB-\	-sze	.	8g-/	8d-\	mil-	.	.
8B-/	.	.	.	8f/	8d-\	-sze	.	.
=48	=48	=48	=48	=48	=48	=48	=48	=48
8G-/	4E-\	twe	.	8c/	8c\	two-	.	.
8G-/	.	.	.	8e-/	8c\	-je	.	.
8F/	8BB-\	ser-	.	8d-/	8B-\	ser-	.	.
8F/	8D-\	-ce	.	8B-/	8F\	-ce	.	.
=49	=49	=49	=49	=49	=49	=49	=49	=49
8.E-/	8.AA-X\	.	.	8.c/	8.G-\	Dzie-	.	.
!	!	!	!LO:HP:b	!	!	!	!	!LO:HP:a
16E-/	16C\	.	<	16A-/	16G-\	-wczy-	.	<
8G-/	8E-\	.	.	8c/	8A-\	-no	.	.
8G-/	8AA-\	.	[	8e-/	8c\	ko-	.	[
=50	=50	=50	=50	=50	=50	=50	=50	=50
8B-/	4D-\	.	.	8g-/	8d-\	-cha-	.	.
4A-/	.	.	.	4f/	4d-\	-na	.	.
.	4C-X\	.	.	.	.	.	.	.
8r	.	.	.	8r	8ryy	.	.	.
=51	=51	=51	=51	=51	=51	=51	=51	=51
!	!	!	!LO:DY:b:rj	!	!	!	!	!LO:DY:b:rj
8B-/	8BB-\	.	f	8g-/	8dn\	Mil-	.	f
8B-/	8BB-\	.	.	8f/	8d\	-sze	.	.
8.A-;>/	8.BB-\	.	.	8.b-;>/	8.d\	dla	.	.
16F/	16Dn\	.	.	16B-/	16A-\	mnie	.	.
!!LO:LB:g=original
=52	=52	=52	=52	=52	=52	=52	=52	=52
8G-/	8E-\	.	.	8c/	8G-\	two-	.	.
8A-/	8F\	.	.	8dn/	8B-\	-je	.	.
8B-/	8G-\	.	.	8e-/	8e-\	ser-	.	.
8B--/	8E-\	.	.	8g-/	8d-X\	-ce	.	.
=53	=53	=53	=53	=53	=53	=53	=53	=53
8A-/	8A-\	.	.	8f/	8c\	Dzie-	.	.
8G-/	8A-\	.	.	8e-/	8c\	-wczy-	.	.
8.G-/	8.AA-;<\	.	.	8.a-;>/	8.c\	-no	.	.
16E-/	16C\	.	.	16A-/	16G-\	ko-	.	.
=54	=54	=54	=54	=54	=54	=54	=54	=54
8F/	8D-\	.	.	(<16f/LL	8A-\	-cha-	.	.
.	.	.	.	16e-/JJ)	.	.	.	.
4F/	4D-\	.	.	4d-/	4A-\	-na.	.	.
8r	8ryy	.	.	8r	8ryy	.	.	.
*v	*v	*	*	*	*	*	*	*
*	*	*	*v	*v	*	*	*
==	==	==	==	==	==	==
*-	*-	*-	*-	*-	*-	*-
!!!system-decoration: {(s1,s2)}
!!!RDF**kern: > = above
!!!RDF**kern: < = below
!!!EED: Antoni Szymański
!!!EST: 2021-06-01
!!!ENC: Katarzyna Serwa
!!!END: 2021-05-23
